X:2
T:Farandole de Cabasse
O:France
A:Provence
C:Trad.
R:Farandole
M:6/8
Q:3/8=90
K:Fmajor
c|{d}cAc fed|c2A A2c|cGA Bcd|(d3 !breath!c2)c|{d}cAc fed|c2A A2c|GAB cde|f3-fz||
[K:Bbmajor]F|d3-d^cd|f3-fed|c2c {d}cde|g3 !breath!f2F|d3-d^cd|f3-fed|cgf edc|B3z2|]
%%footer $D   Galouvielle-MBe 2005 \nFarandole France
